X:1
T:Dar geiht nicks oewr die Gemuetlichkeit
C:traditionell
A:Deutschland
%%textfont Helvetica-Narrow 10pt
%%begintext align
B:Pijpersboek, Mart Heijmans, Muziekuitgeverij van Teeseling, Nijmegen, 1980
N:im buch nr 47
N:im buch ganz in C  1. ton g'
%%endtext
F:http://simonwascher.info/
Z:abc transcription Simon Wascher
M:2/4
L:1/8
K:C
G |\
Gc c/B/d/c/ | BAA f | B3 g | c2 zG |\
Gc c/B/d/c/ | BAA f | B2-B/g/f/d/ | ccc z ||
e/f/ g2 g | ad fB | d/e/ f2 f | gc ec |\
e/f/ g2 g | ad fB | dg g/f/e/d/ |cec z ||
%%wordsfont Times-Italic 11pt
W:aus Simon Waschers TradArchiv
